X: 43645
T: Zeppelin, The
R: hornpipe
M: 4/4
K: Amajor
E2|{B}A>GA>B c>de>c|d>cd>e f>ga>f|e>a(g>a) e>cA>c|B2.e2.e2 E2|
A>GA>B c>de>c|d>cd>e f>ga>f|e>ag>f e>cd>B|{B}c2.A2.A2:|
e2|a>ga>f g>^^fg>e|f>^ef>^d e>de>c|d>cd>B c>^Bc>A|B2.e2.e2 E2|
{B}A>GA>B c>de>c|d>cd>e f>ga>f|e>a(g>a) (3efe (3dcB|{B}c2.A2.A2:|

